X:10
T:Doonagore
M:C|
R:reel
C:Traditional
K:G
DG (3GGG FGAc | BG (3GGG ABcA | (3ddd cA BGFG | AdcA BGAF |
DG (3GGG FGAc | BG (3GGG ABcA | (3ddd cA BGFG |[1 AdcA G2 GE :|[2 AdcA GBde |
|: (3ggg ge fdde | fdgd fdde | (3ggg ge fdd^c | defd gdef |
gbag fddc | BG (3GGG ABcA | (3ddd cA BGFG |[1 AdcA GBde :|[2 AdcA G2 GE |]


